X:182
T:The Smashing of the Van
Z:Jack Campin, http://www.campin.me.uk/
F:Jack Campin's Nine-Note Tunebook
% last edit 28-02-2013
G:song air
S:Jimmy McBride, The Flower of Dunaff Hill
M:6/8
L:1/8
Q:3/8=100
K:D
D   |F2A G2F|E2F  D2A   |d2d c2B|A3- A2
B/c/|d2F G2F|EA2  c2B   |A2A B2A|F3- F2
B/c/|F2A G2F|ED2- D2A/A/|d2d c2B|A3- A2
B/c/|d2F G2F|EA2  c2B   |A2A GE2|D3- D2|]

